material/.icons/material/gamma.svg

<svg xmlns="http://www.w3.org/2000/svg" viewBox="0 0 24 24"><path d="M11.76 19c1.16 0 1.82-1 1.82-2.71 0-1.09-.08-2.41-.28-3.62L18 5h-2.72l-2.57 4.82-.16-.49C11.83 7.19 10.82 5 8.68 5 8 5 7.45 5.18 7 5.54 6 6.39 6 8 6 8.5h.91c.06-.44.3-1.67 1.34-1.67 1.75 0 2.55 3.17 3.15 5.59-.9 2.16-1.4 3.72-1.4 4.55 0 .98.56 2.03 1.76 2.03"/></svg>

<?xml version="1.0" encoding="UTF-8"?><!DOCTYPE svg PUBLIC "-//W3C//DTD SVG 1.1//EN" "http://www.w3.org/Graphics/SVG/1.1/DTD/svg11.dtd"><svg xmlns="http://www.w3.org/2000/svg" xmlns:xlink="http://www.w3.org/1999/xlink" version="1.1" id="mdi-gamma" width="24" height="24" viewBox="0 0 24 24"><path d="M11.76 19C12.92 19 13.58 18 13.58 16.29C13.58 15.2 13.5 13.88 13.3 12.67L18 5H15.28L12.71 9.82L12.55 9.33C11.83 7.19 10.82 5 8.68 5C8 5 7.45 5.18 7 5.54C6 6.39 6 8 6 8.5H6.91C6.97 8.06 7.21 6.83 8.25 6.83C10 6.83 10.8 10 11.4 12.42C10.5 14.58 10 16.14 10 16.97C10 17.95 10.56 19 11.76 19" /></svg>
